; generated by PrusaSlicer 2.9.4 on 2026-01-26 at 06:00:23 UTC


;
;

;
;
; 

; external perimeters extrusion width = 0.45mm
; perimeters extrusion width = 0.45mm
; infill extrusion width = 0.45mm
; solid infill extrusion width = 0.45mm
; top infill extrusion width = 0.42mm
; first layer extrusion width = 0.50mm

;TYPE:Custom
M140 S0
M104 S0
START_PRINT EXTRUDER_TEMP=200 BED_TEMP=60
G21 ; set units to millimeters
G90 ; use absolute coordinates
M83 ; use relative distances for extrusion
; Filament gcode
M107
;LAYER_CHANGE
;Z:0.3
;HEIGHT:0.3
G1 E-.6 F2400
G1 Z.5 F12000
G1 X98.721 Y99.053
G1 Z.3
G1 E.6 F2400
M204 S2000
;TYPE:Skirt/Brim
;WIDTH:0.5
G1 F1800
G1 X100.185 Y97.869 E.09821
G1 X103.568 Y95.851 E.20546
G1 X105.326 Y95.119 E.09933
G1 X106.073 Y94.928 E.04022
G1 X107.955 Y94.724 E.09874
G1 X111.87 Y94.86 E.20433
G1 X113.734 Y95.195 E.09878
G1 X114.443 Y95.431 E.03898
G1 X116.128 Y96.271 E.0982
G1 X119.37 Y98.509 E.20548
G1 X120.766 Y99.805 E.09936
G1 X121.25 Y100.405 E.04021
G1 X122.217 Y102.032 E.09872
G1 X123.719 Y105.65 E.20433
G1 X124.189 Y107.485 E.0988
G1 X124.272 Y108.251 E.04019
G1 X124.206 Y110.143 E.09875
G1 X123.513 Y113.999 E.20435
G1 X122.917 Y115.796 E.09875
G1 X122.572 Y116.485 E.04019
G1 X121.494 Y118.042 E.09878
G1 X118.827 Y120.911 E.20432
G1 X117.353 Y122.1 E.09878
G1 X116.691 Y122.494 E.04018
G1 X114.942 Y123.22 E.09877
G1 X111.147 Y124.192 E.20434
G1 X109.264 Y124.396 E.09879
G1 X108.494 Y124.369 E.04019
G1 X106.63 Y124.034 E.09878
G1 X102.913 Y122.8 E.20428
G1 X101.219 Y121.954 E.09876
G1 X100.604 Y121.528 E.03902
G1 X99.224 Y120.247 E.09821
G1 X96.745 Y117.186 E.20545
G1 X95.771 Y115.549 E.09936
G1 X95.484 Y114.859 E.03898
G1 X95.015 Y113.036 E.09818
G1 X94.585 Y109.12 E.20548
G1 X94.65 Y107.216 E.09937
G1 X94.782 Y106.481 E.03895
G1 X95.373 Y104.693 E.09822
G1 X97.128 Y101.166 E.20548
G1 X98.212 Y99.6 E.09934
G1 X98.68 Y99.097 E.03584
M204 S5000
G1 X98.999 Y99.393 F12000
M204 S2000
G1 F1800
G1 X99.04 Y99.349 E.00314
G1 X100.408 Y98.243 E.09176
G1 X103.791 Y96.225 E.20546
G1 X105.434 Y95.541 E.09283
G1 X106.181 Y95.35 E.04022
G1 X107.94 Y95.159 E.09229
G1 X111.855 Y95.296 E.20433
G1 X113.597 Y95.609 E.09232
G1 X114.306 Y95.844 E.03896
G1 X115.881 Y96.629 E.09179
G1 X119.122 Y98.868 E.20547
G1 X120.427 Y100.079 E.09286
G1 X120.911 Y100.678 E.04017
G1 X121.815 Y102.2 E.09233
G1 X123.317 Y105.817 E.20428
G1 X123.756 Y107.532 E.09234
G1 X123.839 Y108.298 E.04019
G1 X123.777 Y110.066 E.09227
G1 X123.085 Y113.922 E.20434
G1 X122.527 Y115.601 E.09229
G1 X122.183 Y116.291 E.04021
G1 X121.175 Y117.745 E.09228
G1 X118.508 Y120.614 E.20432
G1 X117.13 Y121.726 E.09236
G1 X116.468 Y122.119 E.04016
G1 X114.834 Y122.798 E.09229
G1 X111.039 Y123.77 E.20434
G1 X109.28 Y123.96 E.09228
G1 X108.51 Y123.933 E.04019
G1 X106.768 Y123.621 E.09231
G1 X103.05 Y122.386 E.20435
G1 X101.467 Y121.596 E.09228
G1 X100.853 Y121.17 E.03898
G1 X99.563 Y119.973 E.09179
G1 X97.084 Y116.912 E.20545
G1 X96.173 Y115.382 E.09288
G1 X95.886 Y114.692 E.03898
G1 X95.448 Y112.988 E.09177
G1 X95.018 Y109.072 E.20548
G1 X95.078 Y107.293 E.09284
G1 X95.21 Y106.558 E.03895
G1 X95.763 Y104.887 E.09181
G1 X97.518 Y101.36 E.20548
G1 X98.531 Y99.897 E.09282
G1 X98.958 Y99.437 E.03274
G1 E-.6 F2400
M204 S5000
G1 Z.5 F12000
G1 X111.73 Y112.055
G1 Z.3
G1 E.6 F2400
M204 S2000
;TYPE:Perimeter
;WIDTH:0.5
G1 F1800
G1 X111.507 Y112.281 E.01656
G1 X110.893 Y112.643 E.03718
G1 X110.141 Y112.898 E.04142
G1 X109.545 Y112.962 E.03127
G1 X109.204 Y112.972 E.01779
G1 X108.565 Y112.876 E.0337
G1 X107.82 Y112.601 E.04142
G1 X107.136 Y112.151 E.04271
G1 X106.964 Y112 E.01194
G1 X106.885 Y111.875 E.00771
G1 X106.82 Y111.566 E.01647
G1 X106.972 Y107.207 E.2275
G1 X107.027 Y106.966 E.01289
G1 X107.199 Y106.734 E.01506
G1 X107.907 Y106.305 E.04318
G1 X108.567 Y106.079 E.03639
G1 X108.804 Y106.022 E.01271
G1 X109.448 Y105.971 E.0337
G1 X110.235 Y106.072 E.04139
G1 X110.78 Y106.269 E.03023
G1 X111.11 Y106.417 E.01886
G1 X111.699 Y106.822 E.03728
G1 X111.868 Y106.993 E.01254
G1 X111.983 Y107.31 E.01759
G1 X111.828 Y111.741 E.23126
G1 X111.753 Y112.002 E.01416
M204 S5000
G1 X111.344 Y111.819 F12000
M204 S2000
;TYPE:External perimeter
G1 F1800
G1 X111.306 Y111.892 E.00429
G1 X110.676 Y112.265 E.03819
G1 X110.01 Y112.483 E.03655
G1 X109.51 Y112.527 E.02618
G1 X109.077 Y112.512 E.0226
G1 X108.581 Y112.433 E.0262
G1 X107.98 Y112.196 E.0337
G1 X107.383 Y111.792 E.0376
G1 X107.277 Y111.684 E.00789
G1 X107.276 Y110.975 E.03698
G1 X107.407 Y107.222 E.19587
G1 X107.483 Y107.065 E.0091
G1 X108.128 Y106.68 E.03918
G1 X108.698 Y106.495 E.03126
G1 X109.482 Y106.406 E.04116
G1 X110.171 Y106.503 E.03629
G1 X110.82 Y106.753 E.03628
G1 X111.451 Y107.18 E.03974
G1 X111.546 Y107.331 E.00931
G1 X111.393 Y111.726 E.22938
G1 X111.372 Y111.766 E.00236
G1 X111.067 Y112.025 F12000
G1 E-.6 F2400
M204 S5000
G1 Z.5 F12000
G1 X104.194 Y108.539
G1 Z.3
G1 E.6 F2400
M204 S2000
;TYPE:Perimeter
;WIDTH:0.548107
G1 F1800
G1 X102.978 Y108.54 E.07043
;WIDTH:0.50083
G1 X102.616 Y108.433 E.01973
G1 X102.216 Y108.175 E.02487
G1 X102.801 Y108.084 E.03094
G1 X103.055 Y108.116 E.01338
;WIDTH:0.548107
G1 X104.138 Y108.518 E.06691
G1 E-.6 F2400
M204 S5000
G1 Z.5 F12000
G1 X105.526 Y105.873
G1 Z.3
G1 E.6 F2400
M204 S2000
;WIDTH:0.548106
G1 F1800
G1 X104.503 Y105.216 E.07042
;WIDTH:0.500832
G1 X104.256 Y104.93 E.01975
G1 X104.059 Y104.497 E.02486
G1 X104.6 Y104.737 E.03093
G1 X104.796 Y104.901 E.01336
;WIDTH:0.548106
G1 X105.49 Y105.825 E.06693
G1 E-.6 F2400
M204 S5000
G1 Z.5 F12000
G1 X108.088 Y104.352
G1 Z.3
G1 E.6 F2400
M204 S2000
;WIDTH:0.547759
G1 F1800
G1 X107.838 Y103.798 E.03518
;WIDTH:0.522083
G1 X107.588 Y103.244 E.03331
;WIDTH:0.496804
G1 X107.523 Y102.91 E.01762
G1 X107.582 Y102.392 E.02699
G1 X107.832 Y102.713 E.02107
G1 X108.002 Y103.14 E.0238
;WIDTH:0.522083
G1 X108.045 Y103.746 E.03329
;WIDTH:0.547759
G1 X108.084 Y104.292 E.03168
G1 E-.6 F2400
M204 S5000
G1 Z.5 F12000
G1 X111.066 Y104.456
G1 Z.3
G1 E.6 F2400
M204 S2000
;WIDTH:0.547764
G1 F1800
G1 X111.155 Y103.855 E.03516
;WIDTH:0.522086
G1 X111.244 Y103.254 E.0333
;WIDTH:0.496805
G1 X111.37 Y102.937 E.01766
G1 X111.7 Y102.533 E.02701
G1 X111.736 Y102.939 E.0211
G1 X111.648 Y103.39 E.02379
;WIDTH:0.522086
G1 X111.357 Y103.923 E.03328
;WIDTH:0.547764
G1 X111.094 Y104.403 E.03168
G1 E-.6 F2400
M204 S5000
G1 Z.5 F12000
G1 X113.515 Y106.153
G1 Z.3
G1 E.6 F2400
M204 S2000
;WIDTH:0.547817
G1 F1800
G1 X113.913 Y105.692 E.03525
;WIDTH:0.522364
G1 X114.31 Y105.231 E.03336
;WIDTH:0.497345
G1 X114.627 Y105.029 E.01949
G1 X115.095 Y104.891 E.02529
G1 X114.892 Y105.248 E.02129
G1 X114.58 Y105.563 E.02298
;WIDTH:0.522364
G1 X114.047 Y105.858 E.03341
;WIDTH:0.547817
G1 X113.567 Y106.124 E.03177
G1 E-.6 F2400
M204 S5000
G1 Z.5 F12000
G1 X115.29 Y108.95
G1 Z.3
G1 E.6 F2400
M204 S2000
;WIDTH:0.522082
G1 F1800
G1 X115.264 Y108.948 E.00143
;WIDTH:0.547761
G1 X114.66 Y108.905 E.03505
G1 X115.266 Y108.728 E.03654
;WIDTH:0.522082
G1 X115.824 Y108.567 E.03183
;WIDTH:0.496801
G1 X116.165 Y108.55 E.01768
G1 X116.669 Y108.683 E.02699
G1 X116.315 Y108.884 E.02108
G1 X115.869 Y108.992 E.02376
;WIDTH:0.522082
G1 X115.35 Y108.954 E.02852
G1 E-.6 F2400
M204 S5000
G1 Z.5 F12000
G1 X113.874 Y111.522
G1 Z.3
G1 E.6 F2400
M204 S2000
;WIDTH:0.5
G1 F1800
G1 X114.185 Y111.826 E.02268
;WIDTH:0.496408
G1 X115.295 Y112.184 E.06033
;WIDTH:0.496805
G1 X115.59 Y112.354 E.01763
G1 X115.943 Y112.738 E.02701
G1 X115.536 Y112.717 E.0211
G1 X115.103 Y112.566 E.02374
;WIDTH:0.496408
G1 X114.12 Y111.863 E.06252
;WIDTH:0.5
G1 X113.576 Y111.799 E.02857
G1 X113.3 Y111.975 E.01707
G1 X112.443 Y112.897 E.06566
G1 X112.079 Y113.323 E.02923
G1 X112.007 Y113.562 E.01302
G1 X112.154 Y114.04 E.02608
;WIDTH:0.496406
G1 X112.894 Y114.941 E.06031
;WIDTH:0.496802
G1 X113.05 Y115.244 E.01765
G1 X113.139 Y115.758 E.02701
G1 X112.809 Y115.52 E.02107
G1 X112.538 Y115.188 E.02219
;WIDTH:0.496406
G1 X112.095 Y114.075 E.06197
;WIDTH:0.5
G1 X111.745 Y113.717 E.02611
G1 X111.501 Y113.666 E.013
G1 X111.329 Y113.687 E.00904
G1 X109.637 Y114.128 E.0912
G1 X109.38 Y114.326 E.01692
;WIDTH:0.500513
G1 X109.246 Y114.808 E.02613
G1 X109.389 Y115.963 E.06078
;WIDTH:0.50083
G1 X109.334 Y116.337 E.01976
G1 X109.136 Y116.77 E.02488
G1 X108.963 Y116.203 E.03098
G1 X108.958 Y115.948 E.01333
;WIDTH:0.500513
G1 X109.181 Y114.806 E.06076
G1 X109.081 Y114.315 E.02617
;WIDTH:0.5
G1 X108.903 Y114.138 E.01309
G1 X108.746 Y114.061 E.00912
G1 X107.012 Y113.509 E.09492
G1 X106.763 Y113.544 E.01312
;WIDTH:0.500107
G1 X106.387 Y113.879 E.02627
G1 X105.884 Y114.925 E.06055
G1 X105.629 Y115.218 E.02027
G1 X105.24 Y115.479 E.02444
G1 X105.319 Y115.087 E.02086
G1 X105.507 Y114.703 E.02231
;WIDTH:0.5
G1 X106.333 Y113.841 E.06227
G1 X106.514 Y113.371 E.02627
G1 X106.459 Y113.127 E.01305
G1 X106.37 Y112.979 E.00901
G1 X105.335 Y111.697 E.08594
G1 X105.072 Y111.502 E.01708
G1 X104.489 Y111.55 E.03051
;WIDTH:0.496406
G1 X103.492 Y112.154 E.0603
;WIDTH:0.496804
G1 X103.169 Y112.266 E.0177
G1 X102.648 Y112.281 E.02699
G1 X102.931 Y111.988 E.02109
G1 X103.329 Y111.759 E.02377
;WIDTH:0.496406
G1 X104.504 Y111.477 E.06251
;WIDTH:0.5
G1 X104.909 Y111.108 E.02858
G1 X104.956 Y110.784 E.01708
G1 X104.778 Y109.146 E.08594
G1 X104.683 Y108.87 E.01522
;WIDTH:0.527338
G1 X104.495 Y108.715 E.01351
;WIDTH:0.554677
G1 X104.307 Y108.559 E.01434
G1 X104.537 Y108.479 E.0143
;WIDTH:0.527338
G1 X104.767 Y108.399 E.0135
;WIDTH:0.5
G1 X104.953 Y108.173 E.01527
G1 X105.706 Y106.667 E.08782
G1 X105.749 Y106.298 E.01938
;WIDTH:0.527337
G1 X105.68 Y106.125 E.01032
;WIDTH:0.554675
G1 X105.61 Y105.951 E.01101
G1 X105.788 Y106.008 E.01097
;WIDTH:0.527337
G1 X105.966 Y106.065 E.01036
;WIDTH:0.5
G1 X106.214 Y106.041 E.013
G1 X106.362 Y105.976 E.00843
G1 X107.361 Y105.382 E.06062
G1 X107.915 Y105.026 E.03435
G1 X108.051 Y104.817 E.01301
;WIDTH:0.527427
G1 X108.083 Y104.639 E.01003
;WIDTH:0.554855
G1 X108.116 Y104.462 E.01057
G1 X108.23 Y104.601 E.01056
;WIDTH:0.527427
G1 X108.345 Y104.741 E.01005
;WIDTH:0.5
G1 X108.564 Y104.86 E.013
G1 X108.736 Y104.889 E.0091
G1 X109.693 Y104.922 E.04995
G1 X110.507 Y104.939 E.04247
G1 X110.783 Y104.826 E.01556
;WIDTH:0.527428
G1 X110.906 Y104.695 E.00996
;WIDTH:0.554857
G1 X111.03 Y104.563 E.01064
G1 X111.05 Y104.743 E.01064
;WIDTH:0.527428
G1 X111.071 Y104.922 E.00999
;WIDTH:0.5
G1 X111.192 Y105.141 E.01305
G1 X111.32 Y105.258 E.00905
G1 X112.309 Y105.943 E.06275
G1 X112.818 Y106.271 E.03158
G1 X113.062 Y106.312 E.01291
;WIDTH:0.527425
G1 X113.244 Y106.268 E.01038
;WIDTH:0.554851
G1 X113.426 Y106.224 E.011
G1 X113.345 Y106.393 E.01101
;WIDTH:0.527425
G1 X113.263 Y106.562 E.01041
;WIDTH:0.5
G1 X113.252 Y106.809 E.0129
G1 X113.295 Y106.965 E.00844
G1 X113.927 Y108.487 E.08596
G1 X114.095 Y108.724 E.01515
;WIDTH:0.527427
G1 X114.32 Y108.82 E.01356
;WIDTH:0.554855
G1 X114.544 Y108.917 E.01434
G1 X114.346 Y109.059 E.01431
;WIDTH:0.527427
G1 X114.147 Y109.201 E.01355
;WIDTH:0.5
G1 X114.033 Y109.469 E.01519
G1 X113.742 Y111.091 E.08595
G1 X113.766 Y111.417 E.01705
G1 X113.831 Y111.48 E.00472
M204 S5000
G1 X114.219 Y111.316 F12000
M204 S2000
;TYPE:External perimeter
G1 F1800
G1 X114.318 Y111.414 E.00727
G1 X115.492 Y111.792 E.06433
G1 X115.853 Y112.004 E.02184
G1 X116.204 Y112.365 E.02626
G1 X116.543 Y112.84 E.03044
G1 X116.385 Y113.156 E.01843
G1 X115.822 Y113.177 E.02939
G1 X115.426 Y113.142 E.02074
G1 X114.929 Y112.975 E.02735
G1 X113.906 Y112.243 E.06561
G1 X113.711 Y112.213 E.01029
G1 X113.619 Y112.271 E.00567
G1 X112.526 Y113.448 E.08378
G1 X112.44 Y113.605 E.00934
G1 X112.489 Y113.765 E.00873
G1 X113.272 Y114.718 E.06433
G1 X113.461 Y115.091 E.02181
G1 X113.561 Y115.585 E.02629
G1 X113.589 Y116.167 E.03039
G1 X113.285 Y116.348 E.01845
G1 X112.8 Y116.061 E.02939
G1 X112.486 Y115.817 E.02074
G1 X112.159 Y115.409 E.02727
G1 X111.694 Y114.239 E.06567
G1 X111.576 Y114.119 E.00878
G1 X111.437 Y114.109 E.00727
G1 X109.841 Y114.517 E.08592
G1 X109.723 Y114.594 E.00735
G1 X109.679 Y114.755 E.00871
G1 X109.833 Y116.005 E.06569
G1 X109.715 Y116.567 E.02995
G1 X109.306 Y117.369 E.04696
G1 X108.949 Y117.357 E.01863
G1 X108.742 Y116.972 E.0228
G1 X108.546 Y116.331 E.03496
G1 X108.511 Y115.965 E.01918
G1 X108.753 Y114.723 E.066
G1 X108.72 Y114.559 E.00873
G1 X108.608 Y114.474 E.00733
G1 X107.049 Y113.957 E.08567
G1 X106.905 Y113.956 E.00751
G1 X106.78 Y114.067 E.00872
G1 X106.275 Y115.116 E.06073
G1 X105.951 Y115.512 E.02669
G1 X105.589 Y115.772 E.02325
G1 X105.048 Y116.063 E.03204
G1 X104.762 Y115.864 E.01817
G1 X104.796 Y115.534 E.0173
G1 X104.912 Y114.916 E.0328
G1 X105.148 Y114.449 E.02729
G1 X106.018 Y113.54 E.06563
G1 X106.079 Y113.383 E.00879
G1 X106.031 Y113.252 E.00728
G1 X105.228 Y112.258 E.06665
G1 X104.908 Y111.905 E.02485
G1 X104.714 Y111.921 E.01015
G1 X103.659 Y112.56 E.06434
G1 X103.262 Y112.694 E.02186
G1 X102.759 Y112.723 E.02628
G1 X102.179 Y112.668 E.03039
G1 X102.043 Y112.342 E.01842
G1 X102.396 Y111.902 E.02942
G1 X102.682 Y111.626 E.02073
G1 X103.133 Y111.36 E.02731
G1 X104.357 Y111.066 E.06566
G1 X104.507 Y110.939 E.01025
G1 X104.523 Y110.831 E.00569
G1 X104.337 Y109.114 E.09008
G1 X104.133 Y108.999 E.01221
G1 X102.874 Y108.973 E.06568
G1 X102.335 Y108.776 E.02993
G1 X101.598 Y108.257 E.04702
G1 X101.662 Y107.906 E.01861
G1 X102.072 Y107.756 E.02277
G1 X102.735 Y107.653 E.035
G1 X103.102 Y107.671 E.01917
G1 X104.297 Y108.087 E.066
G1 X104.502 Y108.054 E.01083
G1 X104.563 Y107.979 E.00504
G1 X105.3 Y106.505 E.08596
G1 X105.32 Y106.371 E.00707
G1 X105.226 Y106.227 E.00897
G1 X104.18 Y105.525 E.06571
G1 X103.833 Y105.067 E.02997
G1 X103.495 Y104.233 E.04694
G1 X103.738 Y103.971 E.01864
G1 X104.164 Y104.067 E.02278
G1 X104.777 Y104.339 E.03498
G1 X105.077 Y104.552 E.01919
G1 X105.857 Y105.548 E.06599
G1 X106.008 Y105.631 E.00899
G1 X106.14 Y105.601 E.00706
G1 X107.556 Y104.76 E.0859
G1 X107.647 Y104.654 E.00729
G1 X107.645 Y104.487 E.00871
G1 X107.162 Y103.352 E.06434
G1 X107.086 Y102.941 E.0218
G1 X107.129 Y102.439 E.02628
G1 X107.266 Y101.872 E.03043
G1 X107.609 Y101.784 E.01847
G1 X107.993 Y102.196 E.02938
G1 X108.226 Y102.519 E.02077
G1 X108.425 Y103.003 E.0273
G1 X108.542 Y104.256 E.06564
G1 X108.621 Y104.404 E.00875
G1 X108.748 Y104.453 E.0071
G1 X110.354 Y104.509 E.08382
G1 X110.531 Y104.471 E.00944
G1 X110.62 Y104.33 E.0087
G1 X110.827 Y103.114 E.06434
G1 X110.986 Y102.727 E.02182
G1 X111.293 Y102.328 E.02626
G1 X111.715 Y101.925 E.03044
G1 X112.05 Y102.037 E.01842
G1 X112.152 Y102.591 E.02938
G1 X112.173 Y102.988 E.02074
G1 X112.078 Y103.503 E.02732
G1 X111.499 Y104.62 E.06562
G1 X111.485 Y104.788 E.00879
G1 X111.568 Y104.9 E.00727
G1 X112.922 Y105.838 E.08592
G1 X113.052 Y105.877 E.00708
G1 X113.207 Y105.806 E.00889
G1 X113.988 Y104.941 E.06079
G1 X114.134 Y104.82 E.00989
G1 X114.583 Y104.583 E.02648
G1 X115.428 Y104.375 E.04539
G1 X115.653 Y104.653 E.01865
G1 X115.508 Y105.034 E.02126
G1 X115.269 Y105.463 E.02561
G1 X114.997 Y105.787 E.02207
G1 X114.798 Y105.938 E.01303
G1 X113.751 Y106.549 E.06323
G1 X113.683 Y106.746 E.01087
G1 X114.359 Y108.393 E.09286
G1 X114.586 Y108.447 E.01217
G1 X115.778 Y108.131 E.06432
G1 X116.196 Y108.114 E.02182
G1 X116.687 Y108.228 E.02629
G1 X117.228 Y108.444 E.03038
G1 X117.266 Y108.795 E.01841
G1 X116.804 Y109.118 E.0294
G1 X116.452 Y109.302 E.02072
G1 X115.944 Y109.43 E.02733
G1 X114.687 Y109.367 E.06565
G1 X114.5 Y109.457 E.01082
G1 X114.462 Y109.546 E.00505
G1 X114.171 Y111.168 E.08595
G1 X114.179 Y111.273 E.00549
G1 X114.526 Y111.471 F12000
G1 E-.6 F2400
M204 S5000
G1 Z.5 F12000
G1 X110.744 Y104.983
G1 Z.3
G1 E.6 F2400
M204 S2000
;TYPE:Solid infill
;WIDTH:0.52038
G1 F1800
G1 X113.097 Y107.336 E.18169
G1 X113.552 Y108.437 E.06505
G1 X110.389 Y105.273 E.24427
G1 X109.721 Y105.25 E.03649
G1 X110.209 Y105.739 E.03772
G1 X109.638 Y105.652 E.03154
G1 X109.472 Y105.647 E.00907
G1 X109.053 Y105.227 E.03239
G1 X108.706 Y105.215 E.01896
G1 X108.463 Y105.172 E.01347
G1 X108.272 Y105.069 E.01185
G1 X108.263 Y105.082 E.00086
G1 X108.871 Y105.69 E.04695
G1 X108.725 Y105.702 E.008
G1 X108.349 Y105.813 E.02141
G1 X107.949 Y105.413 E.03089
G1 X107.544 Y105.653 E.0257
