; generated by PrusaSlicer 2.9.4 on 2026-01-25 at 08:51:32 UTC


;
;

;
;
; 

; external perimeters extrusion width = 0.45mm
; perimeters extrusion width = 0.45mm
; infill extrusion width = 0.45mm
; solid infill extrusion width = 0.45mm
; top infill extrusion width = 0.42mm
; first layer extrusion width = 0.50mm

;TYPE:Custom
M140 S0
M104 S0
START_PRINT EXTRUDER_TEMP=215 BED_TEMP=60
G21 ; set units to millimeters
G90 ; use absolute coordinates
M83 ; use relative distances for extrusion
; Filament gcode
M107
;LAYER_CHANGE
;Z:0.3
;HEIGHT:0.3
G1 E-.6 F2400
G1 Z.5 F18000
G1 X144.416 Y102.813
G1 Z.3
G1 E.6 F2400
M204 S2000
;TYPE:Skirt/Brim
;WIDTH:0.5
G1 X146.782 Y99.663 E.20549
G1 X148.132 Y98.319 E.09936
G1 X148.731 Y97.873 E.03895
G1 X150.386 Y96.975 E.09821
G1 X154.079 Y95.603 E.20549
G1 X155.941 Y95.203 E.09934
G1 X156.687 Y95.152 E.039
G1 X158.565 Y95.291 E.09822
G1 X162.413 Y96.134 E.20547
G1 X164.196 Y96.804 E.09935
G1 X164.85 Y97.164 E.03894
G1 X166.355 Y98.296 E.09823
G1 X169.136 Y101.086 E.20547
G1 X170.274 Y102.613 E.09933
G1 X170.63 Y103.27 E.03898
G1 X171.284 Y105.036 E.09823
G1 X172.116 Y108.886 E.20545
G1 X172.247 Y110.786 E.09934
G1 X172.19 Y111.555 E.04022
G1 X171.781 Y113.404 E.09877
G1 X170.401 Y117.07 E.20432
G1 X169.488 Y118.729 E.09877
G1 X169.024 Y119.344 E.04018
G1 X167.681 Y120.679 E.09877
G1 X164.538 Y123.017 E.20432
G1 X162.873 Y123.919 E.09877
G1 X162.15 Y124.186 E.0402
G1 X160.298 Y124.582 E.09878
G1 X156.39 Y124.85 E.20432
G1 X154.502 Y124.708 E.09876
G1 X153.749 Y124.542 E.04022
G1 X151.977 Y123.875 E.09876
G1 X148.545 Y121.987 E.20431
G1 X147.033 Y120.847 E.09877
G1 X146.49 Y120.3 E.0402
G1 X145.359 Y118.781 E.09878
G1 X143.493 Y115.337 E.20431
G1 X142.837 Y113.561 E.09875
G1 X142.676 Y112.807 E.04021
G1 X142.546 Y110.918 E.09876
G1 X142.838 Y107.012 E.2043
G1 X143.247 Y105.162 E.09883
G1 X143.51 Y104.463 E.03895
G1 X144.387 Y102.865 E.09508
M204 S5000
G1 X144.765 Y103.074 F18000
M204 S2000
G1 F2400
G1 X147.13 Y99.924 E.20546
G1 X148.392 Y98.669 E.09283
G1 X148.991 Y98.223 E.03895
G1 X150.538 Y97.383 E.09182
G1 X154.231 Y96.012 E.20547
G1 X155.971 Y95.638 E.09283
G1 X156.717 Y95.587 E.039
G1 X158.471 Y95.716 E.09173
G1 X162.319 Y96.56 E.20548
G1 X163.986 Y97.185 E.09286
G1 X164.64 Y97.546 E.03896
G1 X166.047 Y98.603 E.09179
G1 X168.828 Y101.393 E.20547
G1 X169.891 Y102.821 E.09286
G1 X170.247 Y103.478 E.03898
G1 X170.858 Y105.128 E.09177
G1 X171.69 Y108.978 E.20545
G1 X171.813 Y110.754 E.09286
G1 X171.755 Y111.522 E.04017
G1 X171.373 Y113.25 E.09231
G1 X169.993 Y116.916 E.20432
G1 X169.14 Y118.467 E.09233
G1 X168.676 Y119.082 E.04018
G1 X167.421 Y120.33 E.09232
G1 X164.278 Y122.667 E.20429
G1 X162.722 Y123.51 E.09231
G1 X161.999 Y123.777 E.0402
G1 X160.268 Y124.148 E.09234
G1 X156.36 Y124.415 E.20431
G1 X154.596 Y124.283 E.09227
G1 X153.843 Y124.117 E.04022
G1 X152.187 Y123.493 E.0923
G1 X148.755 Y121.605 E.20431
G1 X147.342 Y120.54 E.09229
G1 X146.799 Y119.993 E.0402
G1 X145.742 Y118.573 E.09233
G1 X143.876 Y115.129 E.20431
G1 X143.263 Y113.469 E.0923
G1 X143.102 Y112.716 E.04016
G1 X142.981 Y110.95 E.09233
G1 X143.273 Y107.044 E.2043
G1 X143.654 Y105.316 E.0923
G1 X143.918 Y104.617 E.03897
G1 X144.736 Y103.127 E.08866
G1 E-.6
M204 S5000
G1 Z.5 F18000
G1 X156.808 Y106.636
G1 Z.3
G1 E.6 F2400
M204 S2000
;TYPE:Perimeter
;WIDTH:0.5
G1 X157.051 Y106.702 E.01313
G1 X158.281 Y107.629 E.08034
G1 X160.592 Y109.371 E.15095
G1 X160.791 Y109.616 E.01646
G1 X160.851 Y109.944 E.01739
G1 X160.795 Y110.654 E.03715
G1 X160.572 Y111.416 E.04141
G1 X160.282 Y111.941 E.03128
G1 X160.095 Y112.226 E.01778
G1 X159.65 Y112.695 E.03372
G1 X158.998 Y113.147 E.04138
G1 X158.237 Y113.449 E.0427
G1 X158.014 Y113.503 E.01197
G1 X157.867 Y113.496 E.00768
G1 X157.576 Y113.373 E.01648
G1 X154.093 Y110.748 E.22749
G1 X153.927 Y110.564 E.01293
G1 X153.836 Y110.29 E.01506
G1 X153.89 Y109.464 E.04318
G1 X154.084 Y108.794 E.03638
G1 X154.173 Y108.567 E.01272
G1 X154.501 Y108.011 E.03367
G1 X155.035 Y107.423 E.04143
G1 X155.508 Y107.09 E.03017
G1 X155.819 Y106.905 E.01887
G1 X156.489 Y106.654 E.03732
G1 X156.726 Y106.614 E.01254
G1 X156.75 Y106.621 E.0013
M204 S5000
G1 X156.744 Y107.072 F18000
M204 S2000
;TYPE:External perimeter
G1 F2400
G1 X156.826 Y107.078 E.00429
G1 X158.019 Y107.977 E.07792
G1 X160.33 Y109.719 E.15095
G1 X160.417 Y109.884 E.00973
G1 X160.361 Y110.615 E.03824
G1 X160.157 Y111.285 E.03653
G1 X159.907 Y111.72 E.02617
G1 X159.646 Y112.067 E.02265
G1 X159.296 Y112.427 E.02619
G1 X158.757 Y112.783 E.03369
G1 X158.084 Y113.041 E.03759
G1 X157.935 Y113.066 E.00788
G1 X157.354 Y112.66 E.03697
G1 X154.355 Y110.4 E.19587
G1 X154.269 Y110.247 E.00915
G1 X154.324 Y109.499 E.03912
G1 X154.499 Y108.925 E.0313
G1 X154.876 Y108.232 E.04115
G1 X155.351 Y107.723 E.03631
G1 X155.928 Y107.335 E.03627
G1 X156.639 Y107.063 E.03971
G1 X156.684 Y107.067 E.00236
G1 X157.04 Y107.249 F18000
G1 E-.6 F2400
M204 S5000
G1 Z.5 F18000
G1 X159.84 Y105.837
G1 Z.3
G1 E.6 F2400
M204 S2000
;TYPE:Perimeter
;WIDTH:0.527425
G1 X159.842 Y106.014 E.00981
;WIDTH:0.5
G1 X159.996 Y106.261 E.01518
G1 X161.157 Y107.43 E.08594
G1 X161.439 Y107.597 E.01709
;WIDTH:0.527337
G1 X161.666 Y107.595 E.01258
;WIDTH:0.554675
G1 X161.892 Y107.594 E.01327
G1 X161.767 Y107.782 E.01325
;WIDTH:0.527337
G1 X161.642 Y107.971 E.01256
;WIDTH:0.5
G1 X161.628 Y108.299 E.01712
G1 X161.892 Y109.53 E.06567
G1 X162.032 Y110.072 E.0292
G1 X162.186 Y110.268 E.013
G1 X162.662 Y110.422 E.02609
;WIDTH:0.496407
G1 X163.825 Y110.333 E.06034
;WIDTH:0.496804
G1 X164.163 Y110.378 E.01765
G1 X164.634 Y110.6 E.02696
G1 X164.25 Y110.734 E.02106
G1 X163.823 Y110.766 E.02217
;WIDTH:0.496407
G1 X162.657 Y110.49 E.06198
;WIDTH:0.5
G1 X162.164 Y110.572 E.02607
G1 X161.981 Y110.743 E.01306
G1 X161.9 Y110.895 E.00898
G1 X161.291 Y112.535 E.09125
G1 X161.306 Y112.858 E.01687
;WIDTH:0.500514
G1 X161.624 Y113.245 E.02616
G1 X162.652 Y113.79 E.06076
;WIDTH:0.500831
G1 X162.927 Y114.049 E.01974
G1 X163.168 Y114.46 E.0249
G1 X162.604 Y114.277 E.03099
G1 X162.393 Y114.134 E.01332
;WIDTH:0.500514
G1 X161.585 Y113.297 E.06075
G1 X161.125 Y113.097 E.02619
;WIDTH:0.5
G1 X160.878 Y113.141 E.01309
G1 X160.724 Y113.226 E.00917
G1 X159.278 Y114.33 E.09489
G1 X159.164 Y114.553 E.01306
;WIDTH:0.500515
G1 X159.222 Y115.054 E.02634
G1 X159.792 Y116.068 E.06075
;WIDTH:0.500831
G1 X159.883 Y116.435 E.01976
G1 X159.864 Y116.911 E.0249
G1 X159.489 Y116.452 E.03097
G1 X159.388 Y116.218 E.01332
;WIDTH:0.500515
G1 X159.161 Y115.076 E.0608
G1 X158.88 Y114.658 E.0263
;WIDTH:0.5
G1 X158.648 Y114.563 E.01308
G1 X158.475 Y114.552 E.00904
G1 X156.831 Y114.664 E.08595
G1 X156.52 Y114.768 E.0171
;WIDTH:0.500516
G1 X156.223 Y115.277 E.03077
G1 X156.154 Y116.439 E.06079
;WIDTH:0.500831
G1 X156.033 Y116.796 E.0197
G1 X155.759 Y117.186 E.02491
G1 X155.692 Y116.597 E.03098
G1 X155.734 Y116.346 E.0133
;WIDTH:0.500516
G1 X156.175 Y115.223 E.063
G1 X156.105 Y114.676 E.0288
;WIDTH:0.5
G1 X155.867 Y114.451 E.01708
G1 X154.423 Y113.657 E.08595
G1 X154.142 Y113.577 E.01524
;WIDTH:0.500109
G1 X153.58 Y113.844 E.03246
G1 X152.896 Y114.781 E.06053
G1 X152.592 Y115.024 E.0203
G1 X152.162 Y115.21 E.02444
G1 X152.311 Y114.838 E.02091
G1 X152.592 Y114.476 E.02391
;WIDTH:0.5
G1 X153.569 Y113.772 E.06281
G1 X153.805 Y113.237 E.0305
G1 X153.727 Y112.956 E.01521
G1 X152.924 Y111.475 E.08787
G1 X152.647 Y111.228 E.01936
;WIDTH:0.500514
G1 X152.131 Y111.209 E.02696
G1 X151.046 Y111.628 E.06074
;WIDTH:0.500831
G1 X150.67 Y111.666 E.01975
G1 X150.202 Y111.58 E.02487
G1 X150.71 Y111.274 E.03099
G1 X150.956 Y111.207 E.01332
;WIDTH:0.500514
G1 X152.118 Y111.145 E.06077
G1 X152.58 Y110.916 E.02693
;WIDTH:0.5
G1 X152.703 Y110.7 E.01297
G1 X152.735 Y110.541 E.00846
G1 X152.821 Y109.383 E.06057
G1 X152.847 Y108.725 E.03435
G1 X152.753 Y108.492 E.0131
;WIDTH:0.527338
G1 X152.626 Y108.364 E.01
;WIDTH:0.554677
G1 X152.5 Y108.236 E.01054
G1 X152.68 Y108.223 E.01059
;WIDTH:0.527338
G1 X152.859 Y108.21 E.00995
;WIDTH:0.5
G1 X153.083 Y108.097 E.01309
G1 X153.206 Y107.973 E.00911
G1 X154.262 Y106.551 E.09239
G1 X154.329 Y106.259 E.01563
;WIDTH:0.527337
G1 X154.292 Y106.083 E.00997
;WIDTH:0.554675
G1 X154.255 Y105.907 E.01056
G1 X154.413 Y105.993 E.01056
;WIDTH:0.527337
G1 X154.571 Y106.079 E.00997
;WIDTH:0.5
G1 X154.82 Y106.106 E.01306
G1 X154.99 Y106.068 E.00909
G1 X156.118 Y105.651 E.06273
G1 X156.679 Y105.422 E.03161
G1 X156.853 Y105.246 E.01291
;WIDTH:0.527428
G1 X156.921 Y105.072 E.01036
;WIDTH:0.554857
G1 X156.99 Y104.897 E.01105
G1 X157.081 Y105.061 E.01101
;WIDTH:0.527428
G1 X157.173 Y105.224 E.01038
;WIDTH:0.5
G1 X157.369 Y105.375 E.01291
G1 X157.521 Y105.43 E.00843
G1 X159.13 Y105.785 E.08594
G1 X159.421 Y105.783 E.01518
;WIDTH:0.527425
G1 X159.629 Y105.654 E.01357
;WIDTH:0.554851
G1 X159.837 Y105.526 E.01434
G1 X159.839 Y105.77 E.01433
;WIDTH:0.527425
G1 X159.839 Y105.777 E.00039
G1 E-.6
M204 S5000
G1 Z.5 F18000
G1 X161.993 Y107.539
G1 Z.3
G1 E.6 F2400
M204 S2000
;WIDTH:0.548106
G1 X162.942 Y106.78 E.07038
;WIDTH:0.50083
G1 X163.292 Y106.637 E.01976
G1 X163.766 Y106.588 E.0249
G1 X163.365 Y107.025 E.03099
G1 X163.147 Y107.158 E.01335
;WIDTH:0.548106
G1 X162.05 Y107.52 E.06691
G1 E-.6
M204 S5000
G1 Z.5 F18000
G1 X152.392 Y108.195
G1 Z.3
G1 E.6 F2400
M204 S2000
;WIDTH:0.548109
G1 X151.197 Y107.975 E.07038
;WIDTH:0.500831
G1 X150.861 Y107.804 E.0197
G1 X150.513 Y107.478 E.02492
G1 X151.106 Y107.495 E.031
G1 X151.349 Y107.572 E.01332
;WIDTH:0.548109
G1 X152.341 Y108.164 E.06691
G1 E-.6
M204 S5000
G1 Z.5 F18000
G1 X154.186 Y105.815
G1 Z.3
G1 E.6 F2400
M204 S2000
;WIDTH:0.548106
G1 X153.3 Y104.983 E.0704
;WIDTH:0.500829
G1 X153.109 Y104.658 E.0197
G1 X152.993 Y104.195 E.02494
G1 X153.482 Y104.53 E.03098
G1 X153.645 Y104.726 E.01332
;WIDTH:0.548106
G1 X154.159 Y105.761 E.06693
G1 E-.6
M204 S5000
G1 Z.5 F18000
G1 X156.982 Y104.784
G1 Z.3
G1 E.6 F2400
M204 S2000
;WIDTH:0.547759
G1 X156.836 Y104.194 E.03518
;WIDTH:0.522082
G1 X156.691 Y103.604 E.0333
;WIDTH:0.496804
G1 X156.688 Y103.263 E.01766
G1 X156.84 Y102.764 E.02701
G1 X157.027 Y103.126 E.0211
G1 X157.117 Y103.576 E.02376
;WIDTH:0.522082
G1 X157.049 Y104.18 E.03331
;WIDTH:0.547759
G1 X156.988 Y104.724 E.03168
G1 E-.6
M204 S5000
G1 Z.5 F18000
G1 X160.142 Y104.692
G1 Z.3
G1 E.6 F2400
M204 S2000
;WIDTH:0.522085
G1 X160.284 Y104.277 E.02404
;WIDTH:0.496805
G1 X160.466 Y103.988 E.01768
G1 X160.864 Y103.651 E.027
G1 X160.826 Y104.056 E.02106
G1 X160.658 Y104.484 E.02381
;WIDTH:0.522085
G1 X160.274 Y104.955 E.0333
;WIDTH:0.547761
G1 X159.891 Y105.426 E.03514
G1 X160.088 Y104.852 E.03512
;WIDTH:0.522085
G1 X160.123 Y104.749 E.00596
M204 S5000
G1 X160.264 Y105.806 F18000
M204 S2000
;TYPE:External perimeter
;WIDTH:0.5
G1 F2400
G1 X160.254 Y105.872 E.00348
G1 X160.305 Y105.954 E.00504
G1 X161.466 Y107.123 E.08594
G1 X161.56 Y107.179 E.00571
G1 X161.753 Y107.142 E.01025
G1 X162.753 Y106.376 E.0657
G1 X163.297 Y106.193 E.02994
G1 X164.196 Y106.139 E.04698
G1 X164.366 Y106.453 E.01862
G1 X164.14 Y106.826 E.02275
G1 X163.686 Y107.32 E.035
G1 X163.388 Y107.536 E.0192
G1 X162.195 Y107.956 E.06597
G1 X162.059 Y108.098 E.01026
G1 X162.054 Y108.207 E.00569
G1 X162.391 Y109.778 E.08381
G1 X162.47 Y109.938 E.00931
G1 X162.629 Y109.99 E.00873
G1 X163.859 Y109.895 E.06435
G1 X164.273 Y109.955 E.02182
G1 X164.735 Y110.156 E.02628
G1 X165.228 Y110.466 E.03038
G1 X165.202 Y110.819 E.01846
G1 X164.689 Y111.052 E.02939
G1 X164.309 Y111.169 E.02074
G1 X163.786 Y111.203 E.02734
G1 X162.561 Y110.913 E.06566
G1 X162.395 Y110.941 E.00878
G1 X162.307 Y111.049 E.00727
G1 X161.727 Y112.591 E.08593
G1 X161.722 Y112.731 E.00731
G1 X161.828 Y112.86 E.00871
G1 X162.941 Y113.45 E.06571
G1 X163.333 Y113.869 E.02993
G1 X163.756 Y114.665 E.04702
G1 X163.541 Y114.95 E.01862
G1 X163.107 Y114.899 E.02279
G1 X162.469 Y114.691 E.035
G1 X162.15 Y114.51 E.01913
G1 X161.271 Y113.599 E.06603
G1 X161.118 Y113.533 E.00869
G1 X160.984 Y113.576 E.00734
G1 X159.666 Y114.556 E.08567
G1 X159.583 Y114.674 E.00752
G1 X159.602 Y114.84 E.00872
G1 X160.219 Y115.939 E.06574
G1 X160.322 Y116.503 E.0299
G1 X160.248 Y117.401 E.047
G1 X159.913 Y117.525 E.01863
G1 X159.576 Y117.247 E.02279
G1 X159.151 Y116.728 E.03499
G1 X158.98 Y116.403 E.01916
G1 X158.733 Y115.161 E.06605
G1 X158.64 Y115.022 E.00872
G1 X158.505 Y114.986 E.00729
G1 X157.23 Y115.073 E.06666
G1 X156.757 Y115.133 E.02487
G1 X156.659 Y115.303 E.01023
G1 X156.583 Y116.56 E.06568
G1 X156.365 Y117.091 E.02994
G1 X155.817 Y117.806 E.04699
G1 X155.469 Y117.729 E.01859
G1 X155.335 Y117.314 E.02275
G1 X155.259 Y116.647 E.03502
G1 X155.291 Y116.281 E.01916
G1 X155.754 Y115.103 E.06602
G1 X155.736 Y114.908 E.01021
G1 X155.657 Y114.833 E.00568
G1 X154.144 Y114 E.09009
G1 X153.932 Y114.101 E.01225
G1 X153.246 Y115.041 E.0607
G1 X152.855 Y115.371 E.02669
G1 X152.452 Y115.561 E.02324
G1 X151.868 Y115.749 E.032
G1 X151.622 Y115.501 E.01822
G1 X151.716 Y115.183 E.0173
G1 X151.942 Y114.597 E.03276
G1 X152.258 Y114.18 E.02729
G1 X153.279 Y113.444 E.06565
G1 X153.37 Y113.257 E.01085
G1 X153.344 Y113.163 E.00509
G1 X152.559 Y111.715 E.08591
G1 X152.46 Y111.622 E.00708
G1 X152.289 Y111.615 E.00893
G1 X151.114 Y112.069 E.0657
G1 X150.54 Y112.091 E.02996
G1 X149.662 Y111.89 E.04698
G1 X149.587 Y111.541 E.01862
G1 X149.91 Y111.247 E.02278
G1 X150.485 Y110.9 E.03503
G1 X150.831 Y110.777 E.01915
G1 X152.095 Y110.71 E.06602
G1 X152.249 Y110.634 E.00896
G1 X152.3 Y110.509 E.00704
G1 X152.423 Y108.866 E.08594
G1 X152.388 Y108.73 E.00732
G1 X152.249 Y108.636 E.00875
G1 X151.016 Y108.383 E.06565
G1 X150.521 Y108.091 E.02998
G1 X149.891 Y107.447 E.04699
G1 X150.017 Y107.113 E.01862
G1 X150.448 Y107.04 E.0228
G1 X151.118 Y107.059 E.03496
G1 X151.476 Y107.143 E.01918
G1 X152.576 Y107.769 E.06602
G1 X152.742 Y107.79 E.00873
G1 X152.856 Y107.713 E.00718
G1 X153.823 Y106.43 E.0838
G1 X153.893 Y106.263 E.00944
G1 X153.827 Y106.108 E.00879
G1 X152.926 Y105.228 E.06569
G1 X152.668 Y104.716 E.0299
G1 X152.486 Y103.833 E.04702
G1 X152.773 Y103.62 E.01864
G1 X153.175 Y103.791 E.02279
G1 X153.729 Y104.17 E.03501
G1 X153.984 Y104.434 E.01914
G1 X154.571 Y105.556 E.06605
G1 X154.699 Y105.663 E.0087
G1 X154.839 Y105.659 E.00731
G1 X156.384 Y105.088 E.08591
G1 X156.49 Y105.005 E.00702
G1 X156.522 Y104.837 E.00892
G1 X156.253 Y103.633 E.06435
G1 X156.253 Y103.214 E.02185
G1 X156.386 Y102.728 E.02628
G1 X156.623 Y102.196 E.03038
G1 X156.976 Y102.172 E.01845
G1 X157.28 Y102.646 E.02937
G1 X157.464 Y103.071 E.02416
G1 X157.549 Y103.615 E.02872
G1 X157.441 Y104.817 E.06295
G1 X157.564 Y104.986 E.0109
G1 X159.301 Y105.376 E.09286
G1 X159.475 Y105.222 E.01212
G1 X159.9 Y104.064 E.06434
G1 X160.126 Y103.712 E.02182
G1 X160.501 Y103.375 E.0263
G1 X160.989 Y103.056 E.03041
G1 X161.298 Y103.226 E.0184
G1 X161.298 Y103.789 E.02937
G1 X161.246 Y104.184 E.02078
G1 X161.06 Y104.673 E.02729
G1 X160.288 Y105.667 E.06565
G1 X160.274 Y105.747 E.00424
G1 X160.461 Y106.101 F18000
M204 S5000
G1 X158.645 Y105.808
M204 S2000
;TYPE:Solid infill
;WIDTH:0.510759
G1 F2400
G1 X161.337 Y108.499 E.20344
G1 X161.509 Y109.303 E.04394
G1 X158.095 Y105.889 E.25805
G1 X157.444 Y105.747 E.03561
G1 X157.255 Y105.68 E.01072
G1 X162.066 Y110.49 E.36361
M204 S5000
G1 X160.975 Y110.031 F18000
M204 S2000
G1 F2400
G1 X161.639 Y110.695 E.05019
G1 X161.457 Y111.144 E.02589
G1 X161.1 Y110.788 E.02695
G1 X160.958 Y111.277 E.02722
G1 X161.284 Y111.603 E.02464
G1 X161.111 Y112.061 E.02617
G1 X160.775 Y111.725 E.0254
G1 X160.544 Y112.125 E.02469
G1 X160.962 Y112.543 E.0316
G1 X160.975 Y112.796 E.01354
G1 X160.762 Y112.834 E.01156
G1 X160.672 Y112.884 E.0055
G1 X160.282 Y112.494 E.02948
G1 X159.972 Y112.815 E.02385
G1 X160.295 Y113.138 E.02441
G1 X159.933 Y113.408 E.02414
G1 X159.638 Y113.113 E.0223
G1 X159.259 Y113.365 E.02433
G1 X159.571 Y113.677 E.02358
G1 X159.209 Y113.946 E.02411
G1 X158.835 Y113.573 E.02823
G1 X158.373 Y113.742 E.02629
G1 X158.931 Y114.3 E.04218
G1 X158.918 Y114.325 E.00151
G1 X158.715 Y114.242 E.01172
G1 X158.46 Y114.225 E.01366
G1 X158.24 Y114.24 E.01179
G1 X157.414 Y113.414 E.06243
G1 E-.6
M204 S5000
G1 Z.5 F18000
G1 X158.801 Y107.858
G1 Z.3
G1 E.6 F2400
M204 S2000
